!!!!SEGMENT: pl-sa--554-a-ix-34--015_anonim--krakowiak.krn
!!!cenid: 18xx:577
!!!COM: Anonim
!!!COM-rismid: pe30004985
!!!CDT:
!!!CNT:
!!!OTL: Krakowiak
!!!PDT:
!!!AGN: Secular
!!!SMS-siglum: PL-SA
!!!SMS-shelfmark: 554/A IX 34
!!!SMS-shelfwork: 015 W
!!!SMS-variant:
!!!SMS-altvar:
!!!NIFC-rismid: 1001069908
!!!URL-scan: http://bc.bdsandomierz.pl/dlibra/publication/1310/edition/1278/content
!!!ONB-nifc: Str. 12, s. 5
**kern	**kern
*part1	*part1
*staff2	*staff1
*Ipiano	*Iempty
*I"Piano	*
*I'P-no	*
*clefF4	*clefG2
*k[b-e-]	*k[b-e-]
*B-:	*B-:
*M2/4	*M2/4
=1	=1
!	!LO:SIC:o:s:=:v:8\left
8BBB-/L	16d'/LL
.	16f'/J
8BB-/J	8f/J
*rep	*
8BBB-/L	8b-/L 8g/
8BB-/J	8a/J 8f/
*Xrep	*
=2	=2
!LO:TX:a:t=P:problem:mixed beam	!
8EE-/L	8a/ 8f/
8E-\J	4g/ 4e-/
!LO:TX:a:t=P:problem:mixed beam	!
*rep	*
8EE-/L	.
8E-\J	8g/ 8e-/
*Xrep	*
=3	=3
!LO:TX:a:t=P:problem:mixed beam	!
8FF/L	8f/L 8d'/
8F\J	8f/ 8d'/
!LO:TX:a:t=P:problem:mixed beam	!
*rep	*
8FF/L	8g/ 8e-/
8F\J	8a/J 8e-/ 8c/
*Xrep	*
=4	=4
8BBB-/L	8b-/L 8f/ 8d/
!	!LO:SIC:o:s:=:v:8\left
8BB-/J	8dd/J 8b-/
*rep	*
8BBB-/L	4r
8BB-/J	.
*Xrep	*
=5||	=5||
8BBB-/L	16d'/LL
.	16f'/J
8BB-/J	8f/J
*rep	*
!	!LO:SIC:o:s:=:v:8/right
8BBB-/L	8b-/L 8g/
8BB-/J	8a/J 8f/
*Xrep	*
=6	=6
!LO:TX:a:t=P:problem:mixed beam	!
8EE-/L	8a/ 8f/
8E-\J	4g/ 4e-/
!LO:TX:a:t=P:problem:mixed beam	!
*rep	*
8EE-/L	.
8E-\J	8g/ 8e-/
*Xrep	*
=7	=7
!LO:TX:a:t=P:problem:mixed beam	!
8FF/L	8f/L 8d'/
8F\J	8f/ 8d'/
!LO:TX:a:t=P:problem:mixed beam	!
*rep	*
8FF/L	8g/ 8e-/
8F\J	8a/J 8e-/ 8c/
*Xrep	*
=8	=8
!LO:TX:a:t=P:problem:mixed beam	!
8BBB-/L	8cc/L 8e-/
8BB-\J	8b-/J 8d/
!	!LO:TX:a:t=fin
4BBB-/	4r
=9:|!|:	=9:|!|:
8e-\L 8c\	16a'\LL
.	16cc'\J
8G\J 8F\	8cc\J
*rep	*
8e-\L 8c\	8.ff\L
8G\J 8F\	.
.	16ee-\Jk
*Xrep	*
=10	=10
8d\L 8B-\	16ee-\LL
.	16dd\JJ
8F\J	4dd\
*rep	*
8d\L 8B-\	.
8F\J	8b-\
*Xrep	*
=11	=11
8e-\L 8c\	16a'\LL
.	16cc'\J
8F\J	8cc\J
*rep	*
8e-\L 8c\	8.ff\L
8F\J	.
.	16ee-\Jk
*Xrep	*
=12	=12
8d\L 8B-\	16ee-\LL
.	16dd\JJ
8F\J	4dd\
*rep	*
8d\L 8B-\	.
8F\J	8b-\
*Xrep	*
==	==
*-	*-
!!!system-decoration: s1,s2
!!!EED: Leszek Kubiak
!!!EST: 2020-12-14
!!!AIN: 1 piano
!!!ENC: Marcin Jachim
!!!END: 2020-06-18
